svgs/digital_wellbeing.svg

<svg width="24" height="24" viewBox="0 0 24 24" fill="none" xmlns="http://www.w3.org/2000/svg">
<circle cx="12" cy="5.5" r="3.5" fill="#FFF1C0"/>
<path d="M11.3282 11.3837L6.37752 16.3344L6.02447 15.9807C4.65851 14.6126 4.65851 12.395 6.02447 11.0268C7.35861 9.6905 9.50246 9.65852 10.8754 10.9308L11.3282 11.3837Z" fill="#FFF1C0"/>
<path d="M12.7432 11.3844L17.6927 16.3339L18.0453 15.9807C19.4112 14.6126 19.4112 12.3949 18.0452 11.0268C16.7204 9.69997 14.5974 9.65905 13.2235 10.9041L12.7432 11.3844Z" fill="#FFF1C0"/>
<path d="M7.79059 17.7497L12.0353 13.505L16.2796 17.7493L12.0349 22.0009L7.79059 17.7497Z" fill="#FFF1C0"/>
</svg>

<svg xmlns="http://www.w3.org/2000/svg" width="24" height="24" fill="none" viewBox="0 0 24 24"><circle cx="12" cy="5.5" r="3.5" fill="#FFF1C0"/><path fill="#FFF1C0" d="m11.328 11.384-4.95 4.95-.354-.353a3.507 3.507 0 0 1 0-4.954 3.497 3.497 0 0 1 4.851-.096zm1.415 0 4.95 4.95.352-.353a3.507 3.507 0 0 0 0-4.954 3.497 3.497 0 0 0-4.822-.123l-.48.48M7.79 17.75l4.245-4.245 4.245 4.244-4.245 4.252z"/></svg>
